X: 6862
T: Charlie O'Neill's
R: strathspey
M: 4/4
K: Dmajor
|B3d A3B|defd ed (3Bcd|B3d A3f|1 af e2 d3A:|2 af e2 d3e||
fgaf g2 bg|afdf edBA|fgaf g2 bg|af e2 d3de|
fgaf g2 bg|afdf edBA|B3d A3f|af e2 d3A||

